app/dist/common/images/recursion.svg

<svg height="18" viewBox="0 0 18 18" width="18" xmlns="http://www.w3.org/2000/svg"><path d="m0 0h18v18h-18z" fill="#f0f3fa"/><path d="m9 10.83v-1.83l1.56.92z" fill="#8b2489"/><path d="m7.44 9.92 1.56-.92v1.83z" fill="#2e519e"/><path d="m10.56 9.92-1.56-.92 1.56-.92z" fill="#e5202a"/><path d="m7.44 8.08 1.56.92-1.56.92z" fill="#2aace4"/><path d="m9 9v-1.83l1.56.91z" fill="#f1bd12"/><path d="m7.44 8.08 1.56-.91v1.83z" fill="#a3d326"/><path d="m9 12v3l-1.25-2.25z" fill="#4753aa"/><path d="m9 12v3l1.25-2.25z" fill="#4e3297"/><path d="m9 15-2.5-1.5 1.25-.75z" fill="#2952a4"/><path d="m9 15 2.5-1.5-1.25-.75z" fill="#8c258a"/><path d="m7.75 12.76-1.25-2.26 2.5 1.5z" fill="#3d64b2"/><path d="m10.25 12.76 1.25-2.26-2.5 1.5z" fill="#ad2c95"/><path d="m6.5 13.5v-3l1.25 2.25z" fill="#2563b2"/><path d="m11.5 13.5v-3l-1.25 2.25z" fill="#d21381"/><path d="m6.5 13.5-2.5-1.5 1.24-.74z" fill="#3386b7"/><path d="m6.5 10.5-1.26.76 1.26 2.24z" fill="#2c91d1"/><path d="m11.5 13.5 2.5-1.5-1.24-.74z" fill="#e51c86"/><path d="m11.5 10.5 1.26.76-1.26 2.24z" fill="#d61070"/><path d="m5.24 11.26 1.26-.76-2.5-1.43z" fill="#37b9ef"/><path d="m12.76 11.26-1.26-.76 2.5-1.43z" fill="#e60988"/><path d="m4 12 1.24-.74-1.24-2.2z" fill="#2aace2"/><path d="m14 12-1.24-.74 1.24-2.2z" fill="#e71c7a"/><path d="m6.5 10.5-2.5-1.43 1.37-.84z" fill="#4cbdc4"/><path d="m11.5 10.5 2.5-1.43-1.37-.84z" fill="#e81855"/><path d="m6.5 10.5v-2.97l-1.13.7z" fill="#5dc6a7"/><path d="m11.5 10.5v-2.97l1.13.7z" fill="#eb3e36"/><path d="m4 9.07v-3.07l1.37 2.23z" fill="#3fa87e"/><path d="m14 9.07v-3.07l-1.37 2.23z" fill="#e5202a"/><path d="m4 6h2.5v1.53l-1.13.7z" fill="#3eb04c"/><path d="m14 6-2.5 1.53 1.13.7z" fill="#e7322b"/><path d="m14 6h-2.5v1.53z" fill="#eb4a2c"/><path d="m6.5 6h2.5l-2.5 1.53z" fill="#a1d428"/><path d="m11.5 6h-2.5l2.5 1.53z" fill="#eb6f30"/><path d="m6.5 6h-2.5l2.5-1.5z" fill="#60c148"/><path d="m11.5 6h2.5l-2.5-1.5z" fill="#f4aa24"/><path d="m9 6h-2.5v-1.5z" fill="#c2dd1a"/><path d="m9 6h2.5v-1.5z" fill="#f4ba17"/><path d="m9 4.5v1.5l-2.5-1.5z" fill="#f0e515"/><path d="m9 4.5v1.5l2.5-1.5z" fill="#fac507"/><path d="m9 4.5h-2.5l2.5-1.5z" fill="#fef100"/><path d="m9 4.5h2.5l-2.5-1.5z" fill="#f8bd12"/></svg>

<!-- by TradingView --><svg xmlns="http://www.w3.org/2000/svg" width="18" height="18" viewBox="0 0 18 18"><path fill="#F0F3FA" d="M0 0h18v18H0z"/><path d="M9 10.83V9l1.56.92-1.56.91Z" fill="#8B2489"/><path d="M7.44 9.92 9 9v1.83l-1.56-.91Z" fill="#2E519E"/><path d="M10.56 9.92 9 9l1.56-.92v1.84Z" fill="#E5202A"/><path d="M7.44 8.08 9 9l-1.56.92V8.08Z" fill="#2AACE4"/><path d="M9 9V7.17l1.56.91L9 9Z" fill="#F1BD12"/><path d="M7.44 8.08 9 7.17V9l-1.56-.92Z" fill="#A3D326"/><path d="M9 12v3l-1.25-2.25L9 12Z" fill="#4753AA"/><path d="M9 12v3l1.25-2.25L9 12Z" fill="#4E3297"/><path d="m9 15-2.5-1.5 1.25-.75L9 15Z" fill="#2952A4"/><path d="m9 15 2.5-1.5-1.25-.75L9 15Z" fill="#8C258A"/><path d="M7.75 12.76 6.5 10.5 9 12l-1.25.76Z" fill="#3D64B2"/><path d="m10.25 12.76 1.25-2.26L9 12l1.25.76Z" fill="#AD2C95"/><path d="M6.5 13.5v-3l1.25 2.25-1.25.75Z" fill="#2563B2"/><path d="M11.5 13.5v-3l-1.25 2.25 1.25.75Z" fill="#D21381"/><path d="M6.5 13.5 4 12l1.24-.74L6.5 13.5Z" fill="#3386B7"/><path d="m6.5 10.5-1.26.76L6.5 13.5v-3Z" fill="#2C91D1"/><path d="M11.5 13.5 14 12l-1.24-.74-1.26 2.24Z" fill="#E51C86"/><path d="m11.5 10.5 1.26.76-1.26 2.24v-3Z" fill="#D61070"/><path d="m5.24 11.26 1.26-.76L4 9.07l1.24 2.19Z" fill="#37B9EF"/><path d="m12.76 11.26-1.26-.76L14 9.07l-1.24 2.19Z" fill="#E60988"/><path d="m4 12 1.24-.74L4 9.06V12Z" fill="#2AACE2"/><path d="m14 12-1.24-.74L14 9.06V12Z" fill="#E71C7A"/><path d="M6.5 10.5 4 9.07l1.37-.84L6.5 10.5Z" fill="#4CBDC4"/><path d="M11.5 10.5 14 9.07l-1.37-.84-1.13 2.27Z" fill="#E81855"/><path d="M6.5 10.5V7.53l-1.13.7L6.5 10.5Z" fill="#5DC6A7"/><path d="M11.5 10.5V7.53l1.13.7-1.13 2.27Z" fill="#EB3E36"/><path d="M4 9.07V6l1.37 2.23L4 9.07Z" fill="#3FA87E"/><path d="M14 9.07V6l-1.37 2.23 1.37.84Z" fill="#E5202A"/><path d="M4 6h2.5v1.53l-1.13.7L4 6Z" fill="#3EB04C"/><path d="m14 6-2.5 1.53 1.13.7L14 6Z" fill="#E7322B"/><path d="M14 6h-2.5v1.53L14 6Z" fill="#EB4A2C"/><path d="M6.5 6H9L6.5 7.53V6Z" fill="#A1D428"/><path d="M11.5 6H9l2.5 1.53V6Z" fill="#EB6F30"/><path d="M6.5 6H4l2.5-1.5V6Z" fill="#60C148"/><path d="M11.5 6H14l-2.5-1.5V6Z" fill="#F4AA24"/><path d="M9 6H6.5V4.5L9 6Z" fill="#C2DD1A"/><path d="M9 6h2.5V4.5L9 6Z" fill="#F4BA17"/><path d="M9 4.5V6L6.5 4.5H9Z" fill="#F0E515"/><path d="M9 4.5V6l2.5-1.5H9Z" fill="#FAC507"/><path d="M9 4.5H6.5L9 3v1.5Z" fill="#FEF100"/><path d="M9 4.5h2.5L9 3v1.5Z" fill="#F8BD12"/></svg>
